X: 34163
T: Reel Indien
R: reel
M: 4/4
K: Gmajor
d3c|:"G"BGBd cBAG|BGBd g2dc|BGBd cBAG|"D7"FADF A2dc|
"G"BGBd cdAG|BGBd g2dc|BGBd "C"cBAG|1 "D7"FDEF "G"G2dc:|2 FDEF G4||
"Em"B2E2 E3f|g2e2 e4|"D"A2d2 d^cde|f2d2 d4|
"Em"B2E2 E3f|g2e2 efga|"G"b2gb "B7"a2fa|"Em"g2f2 e4|
"Em"B2E2 E3f|g2e2 e3f|"G"g2 g3 age|"F#7"f2^d2 "B7"d4|
"Em"B2E2 E3f|g2e2 efga|"G"b2gb "B7"a2fa|"Em"g2f2 e2B2|
K:Cmaj
|:"C"c3d ecea|g2c2 ecea|g2e2 fedc|"G7"BdGB dfed|
"C"c3d ecea|g2c2 ecea|g2eg "F"fedc|"G7"BGAB "C"c4:|

